; generated by Slic3r 1.1.7 on 2015-07-25 at 11:13:42

; perimeters extrusion width = 0.40mm
; infill extrusion width = 0.42mm
; solid infill extrusion width = 0.42mm
; top infill extrusion width = 0.42mm

G21 ; set units to millimeters
M107
M190 S50 ; wait for bed temperature to be reached
M104 S190 ; set temperature
G28 ; home all axes
G1 Z5 F5000 ; lift nozzle

M109 S190 ; wait for temperature to be reached
G90 ; use absolute coordinates
G92 E0
M82 ; use absolute distances for extrusion
G1 F1800.000 E-1.00000
G92 E0
G1 Z0.300 F7800.000
G1 X87.934 Y89.496 F7800.000
G1 E1.10000 F1800.000
G1 X88.812 Y88.723 E1.18126 F1080.000
G1 X89.562 Y88.159 E1.24650
G1 X90.020 Y87.868 E1.28419
G1 X90.619 Y87.524 E1.33219
G1 X91.110 Y87.267 E1.37069
G1 X91.764 Y86.961 E1.42090
G1 X92.247 Y86.761 E1.45717
G1 X92.781 Y86.561 E1.49682
G1 X93.661 Y86.273 E1.56115
G1 X95.027 Y85.917 E1.65925
G1 X95.885 Y85.747 E1.71998
G1 X96.670 Y85.619 E1.77524
G1 X97.786 Y85.490 E1.85330
G1 X98.634 Y85.430 E1.91241
G1 X100.406 Y85.400 E2.03550
G1 X101.903 Y85.477 E2.13970
G1 X102.963 Y85.594 E2.21379 F1080.000
G1 X104.064 Y85.772 E2.29128
G1 X104.964 Y85.956 E2.35513
G1 X106.023 Y86.229 E2.43106
G1 X114.784 Y88.966 E3.06884
G1 X115.208 Y89.134 E3.10053
G1 X115.761 Y89.385 E3.14273
G1 X116.259 Y89.642 E3.18164
G1 X116.814 Y89.967 E3.22635
G1 X117.491 Y90.423 E3.28306
G1 X118.299 Y91.030 E3.35324
G1 X118.887 Y91.546 E3.40766
G1 X119.614 Y92.302 E3.48051
G1 X120.296 Y93.174 E3.55744
G1 X120.788 Y93.920 E3.61953
G1 X121.034 Y94.338 E3.65322
G1 X121.368 Y94.980 E3.70352
G1 X121.743 Y95.840 E3.76872
G1 X122.286 Y97.312 E3.87770
G1 X122.542 Y98.083 E3.93413
G1 X122.908 Y99.286 E4.02150
G1 X123.375 Y100.966 E4.14268
G1 X123.484 Y101.510 E4.18120
G1 X123.713 Y102.991 E4.28535
G1 X123.854 Y104.265 E4.37442
G1 X123.889 Y104.819 E4.41295
G1 X123.906 Y105.857 E4.48512
G1 X123.849 Y106.851 E4.55431
G1 X123.788 Y107.462 E4.59696
G1 X123.649 Y108.389 E4.66207
G1 X123.444 Y109.320 E4.72829
G1 X123.171 Y110.321 E4.80041
G1 X123.058 Y110.667 E4.82569
G1 X122.656 Y111.822 E4.91070
G1 X122.180 Y112.849 E4.98932
G1 X121.665 Y113.746 E5.06123
G1 X121.365 Y114.197 E5.09885
G1 X119.954 Y116.174 E5.26760
G1 X119.334 Y116.887 E5.33330
G1 X119.007 Y117.213 E5.36530
G1 X118.327 Y117.839 E5.42956
G1 X117.182 Y118.812 E5.53398
G1 X109.539 Y124.327 E6.18885
G1 X108.735 Y124.850 E6.25544
G1 X108.036 Y125.243 E6.31117
G1 X106.792 Y125.833 E6.40684
G1 X105.921 Y126.161 E6.47153
G1 X105.167 Y126.413 E6.52676
G1 X104.458 Y126.611 E6.57793
G1 X97.096 Y128.511 E7.10619
G1 X96.336 Y128.677 E7.16024
G1 X95.450 Y128.807 E7.22248
G1 X94.560 Y128.854 E7.28437
G1 X93.796 Y128.870 E7.33745
G1 X92.359 Y128.827 E7.43740
G1 X91.771 Y128.776 E7.47842
G1 X91.074 Y128.683 E7.52722
G1 X90.294 Y128.545 E7.58227
G1 X89.607 Y128.381 E7.63134
G1 X88.955 Y128.193 E7.67849
G1 X88.217 Y127.926 E7.73306
G1 X87.680 Y127.697 E7.77360
G1 X85.704 Y126.736 E7.92629
G1 X85.126 Y126.370 E7.97381
G1 X84.172 Y125.676 E8.05575
G1 X83.529 Y125.177 E8.11231
G1 X82.593 Y124.396 E8.19701
G1 X81.965 Y123.790 E8.25767
G1 X81.059 Y122.772 E8.35231
G1 X80.273 Y121.768 E8.44094
G1 X79.991 Y121.369 E8.47492
G1 X79.661 Y120.849 E8.51770
G1 X79.166 Y119.977 E8.58736
G1 X78.756 Y119.189 E8.64909
G1 X78.334 Y118.193 E8.72423
G1 X78.091 Y117.448 E8.77869
G1 X77.896 Y116.715 E8.83139
G1 X77.753 Y116.062 E8.87784
G1 X77.568 Y114.919 E8.95827
G1 X77.422 Y113.617 E9.04931
G1 X77.405 Y113.206 E9.07793
G1 X77.402 Y111.665 E9.18495
G1 X77.459 Y110.843 E9.24224
G1 X77.546 Y110.112 E9.29339
G1 X77.639 Y109.485 E9.33741
G1 X77.888 Y108.078 E9.43666
G1 X78.158 Y106.952 E9.51718
G1 X78.282 Y106.515 E9.54874
G1 X78.707 Y105.226 E9.64300
G1 X79.884 Y102.214 E9.86769
G1 X80.830 Y100.382 E10.01097
G1 X86.110 Y91.721 E10.71578
G1 X86.382 Y91.321 E10.74939
G1 X87.002 Y90.511 E10.82025
G1 X87.466 Y89.969 E10.86983
G1 X87.892 Y89.539 E10.91188
G1 F1800.000 E9.91188
G92 E0
G1 X90.529 Y101.639 F7800.000
G1 E1.10000 F1800.000
G1 X90.609 Y100.210 E1.19940 F378.000
G1 X90.704 Y99.286 E1.26395
G1 X90.857 Y98.257 E1.33621
G1 X91.044 Y97.417 E1.39603
G1 X91.374 Y96.421 E1.46892
G1 X91.742 Y95.651 E1.52820
G1 X92.100 Y95.109 E1.57338
G1 X92.579 Y94.541 E1.62501
G1 X93.010 Y94.145 E1.66566
G1 X93.438 Y93.815 E1.70319
G1 X93.859 Y93.568 E1.73714
G1 X94.431 Y93.278 E1.78169
G1 X94.705 Y93.163 E1.80233
G1 X95.577 Y92.857 E1.86657
G1 X96.386 Y92.638 E1.92475
G1 X97.478 Y92.428 E2.00202
G1 X98.690 Y92.291 E2.08679
G1 X100.084 Y92.249 E2.18371
G1 X101.535 Y92.329 E2.28467
G1 X102.755 Y92.503 E2.37032
G1 X103.328 Y92.615 E2.41083
G1 X103.995 Y92.779 E2.45861
G1 X104.531 Y92.952 E2.49772
G1 X105.084 Y93.160 E2.53877
G1 X105.725 Y93.450 E2.58767
G1 X106.224 Y93.734 E2.62756
G1 X106.650 Y94.024 E2.66335
G1 X107.079 Y94.399 E2.70294
G1 X107.426 Y94.747 E2.73708
G1 X107.943 Y95.414 E2.79572
G1 X108.249 Y95.329 E2.81779
G1 X109.098 Y95.160 E2.87796
G1 X110.175 Y95.078 E2.95300
G1 X110.523 Y95.066 E2.97724
G1 X110.798 Y95.081 E2.99633
G1 X111.591 Y95.165 E3.05175
G1 X112.092 Y95.296 E3.08775
G1 X112.475 Y95.423 E3.11575
G1 X113.105 Y95.735 E3.16462
G1 X113.379 Y95.911 E3.18725
G1 X113.935 Y96.319 E3.23518
G1 X114.366 Y96.716 E3.27586
G1 X114.613 Y97.011 E3.30262
G1 X114.962 Y97.535 E3.34637
G1 X115.158 Y97.888 E3.37439
G1 X115.325 Y98.254 E3.40238
G1 X115.684 Y99.268 E3.47710
G1 X115.884 Y99.775 E3.51494
G1 X115.977 Y100.066 E3.53616
G1 X116.067 Y100.444 E3.56321
G1 X116.322 Y101.196 E3.61834
G1 X116.713 Y102.591 E3.71904
G1 X116.905 Y103.811 E3.80485
G1 X117.012 Y104.720 E3.86841
G1 X117.057 Y105.529 E3.92470
G1 X117.030 Y106.063 E3.96191
G1 X116.938 Y106.981 E4.02596
G1 X116.808 Y107.591 E4.06935
G1 X116.646 Y108.212 E4.11394
G1 X116.340 Y109.151 E4.18256
G1 X116.146 Y109.591 E4.21594
G1 X115.937 Y109.975 E4.24635
G1 X114.723 Y111.740 E4.39522
G1 X114.312 Y112.215 E4.43885
G1 X113.160 Y113.256 E4.54673
G1 X112.823 Y113.467 E4.57432
G1 X112.679 Y113.581 E4.58707
G1 X112.075 Y113.909 E4.63484
G1 X111.379 Y114.233 E4.68816
G1 X110.668 Y114.509 E4.74120
G1 X109.795 Y114.742 E4.80399
G1 X109.399 Y114.817 E4.83198
G1 X108.758 Y114.894 E4.87680
G1 X108.313 Y114.911 E4.90780
G1 X108.022 Y115.688 E4.96544
G1 X107.783 Y116.186 E5.00382
G1 X107.440 Y116.773 E5.05101
G1 X107.144 Y117.209 E5.08764
G1 X106.802 Y117.644 E5.12609
G1 X106.310 Y118.159 E5.17557
G1 X105.585 Y118.725 E5.23949
G1 X105.304 Y118.913 E5.26301
G1 X104.920 Y119.135 E5.29385
G1 X104.352 Y119.424 E5.33812
G1 X103.300 Y119.815 E5.41606
G1 X102.743 Y119.972 E5.45630
G1 X102.179 Y120.097 E5.49642
G1 X101.385 Y120.229 E5.55236
G1 X100.333 Y120.312 E5.62564
G1 X99.968 Y120.317 E5.65101
G1 X98.653 Y120.255 E5.74252
G1 X97.469 Y121.039 E5.84116
G1 X97.095 Y121.268 E5.87164
G1 X96.845 Y121.389 E5.89099
G1 X95.561 Y121.827 E5.98519
G1 X95.193 Y121.916 E6.01153
G1 X94.785 Y121.982 E6.04027
G1 X93.835 Y122.013 E6.10627
G1 X92.665 Y121.976 E6.18765
G1 X92.232 Y121.924 E6.21792
G1 X91.581 Y121.809 E6.26383
G1 X90.970 Y121.639 E6.30793
G1 X90.566 Y121.477 E6.33817
G1 X89.705 Y121.042 E6.40517
G1 X89.234 Y120.857 E6.44038
G1 X88.921 Y120.658 E6.46614
G1 X87.852 Y119.854 E6.55910
G1 X87.018 Y119.155 E6.63467
G1 X86.426 Y118.504 E6.69580
G1 X85.770 Y117.670 E6.76955
G1 X85.437 Y117.146 E6.81267
G1 X85.086 Y116.513 E6.86298
G1 X84.833 Y116.001 E6.90266
G1 X84.712 Y115.664 E6.92757
G1 X84.509 Y114.892 E6.98298
G1 X84.372 Y114.066 E7.04117
G1 X84.261 Y113.102 E7.10860
G1 X84.249 Y112.045 E7.18204
G1 X84.274 Y111.601 E7.21291
G1 X84.392 Y110.673 E7.27795
G1 X84.528 Y110.025 E7.32394
G1 X84.609 Y109.434 E7.36537
G1 X84.809 Y108.620 E7.42359
G1 X85.005 Y108.158 E7.45852
G1 X85.044 Y107.925 E7.47490
G1 X85.114 Y107.675 E7.49293
G1 X85.362 Y107.130 E7.53453
G1 X85.472 Y106.790 E7.55940
G1 X85.713 Y106.275 E7.59889
G1 X86.057 Y105.199 E7.67737
G1 X86.180 Y104.948 E7.69677
G1 X86.499 Y104.405 E7.74056
G1 X86.680 Y103.992 E7.77191
G1 X86.873 Y103.627 E7.80058
G1 X87.160 Y103.232 E7.83446
G1 X87.338 Y103.038 E7.85279
G1 X87.635 Y102.763 E7.88091
G1 X87.980 Y102.494 E7.91128
G1 X88.471 Y102.204 E7.95095
G1 X89.122 Y101.901 E8.00081
G1 X89.432 Y101.795 E8.02359
G1 X89.684 Y101.735 E8.04158
G1 X90.126 Y101.666 E8.07267
G1 X90.469 Y101.643 E8.09659
G1 X90.929 Y101.645 F7800.000
G1 X91.062 Y102.161 F7800.000
G1 X91.165 Y100.253 E8.22936 F540.000
G1 X91.257 Y99.352 E8.29232
G1 X91.405 Y98.359 E8.36207
G1 X91.540 Y97.709 E8.40821
G1 X91.890 Y96.632 E8.48689
G1 X92.237 Y95.908 E8.54268
G1 X92.545 Y95.445 E8.58133
G1 X92.969 Y94.940 E8.62713
G1 X93.370 Y94.570 E8.66504
G1 X93.758 Y94.271 E8.69907
G1 X94.131 Y94.054 E8.72905
G1 X94.659 Y93.787 E8.77018
G1 X94.915 Y93.679 E8.78944
G1 X95.742 Y93.389 E8.85034
G1 X96.510 Y93.182 E8.90562
G1 X97.559 Y92.980 E8.97985
G1 X98.729 Y92.847 E9.06166
G1 X100.077 Y92.807 E9.15541
G1 X101.481 Y92.883 E9.25305
G1 X102.659 Y93.052 E9.33574
G1 X103.204 Y93.158 E9.37432
G1 X103.844 Y93.316 E9.42018
G1 X104.342 Y93.476 E9.45649
G1 X104.877 Y93.677 E9.49620
G1 X105.289 Y93.853 E9.52736
G1 X105.936 Y94.212 E9.57876
G1 X106.467 Y94.594 E9.62421
G1 X107.016 Y95.125 E9.67729
G1 X107.731 Y96.051 E9.75856
G1 X108.377 Y95.872 E9.80517
G1 X109.188 Y95.711 E9.86262
G1 X110.518 Y95.624 E9.95520
G1 X110.907 Y95.651 E9.98230
G1 X111.592 Y95.736 E10.03026
G1 X112.267 Y95.940 E10.07928
G1 X112.818 Y96.213 E10.12197
G1 X113.596 Y96.761 E10.18811
G1 X113.956 Y97.094 E10.22216
G1 X114.168 Y97.349 E10.24523
G1 X114.495 Y97.840 E10.28623
G1 X114.661 Y98.140 E10.31002
G1 X114.810 Y98.466 E10.33490
G1 X115.374 Y100.010 E10.44919
G1 X115.533 Y100.606 E10.49204
G1 X115.784 Y101.344 E10.54619
G1 X116.166 Y102.701 E10.64414
G1 X116.354 Y103.896 E10.72818
G1 X116.457 Y104.767 E10.78914
G1 X116.499 Y105.524 E10.84181
G1 X116.474 Y106.034 E10.87726
G1 X116.387 Y106.897 E10.93752
G1 X116.265 Y107.463 E10.97780
G1 X116.109 Y108.063 E11.02085
G1 X115.819 Y108.952 E11.08583
G1 X115.647 Y109.341 E11.11539
G1 X115.460 Y109.683 E11.14248
G1 X114.265 Y111.420 E11.28892
G1 X113.922 Y111.818 E11.32547
G1 X112.816 Y112.812 E11.42880
G1 X112.362 Y113.121 E11.46693
G1 X111.828 Y113.410 E11.50909
G1 X111.151 Y113.724 E11.56102
G1 X110.475 Y113.986 E11.61133
G1 X109.665 Y114.200 E11.66955
G1 X109.313 Y114.267 E11.69444
G1 X108.711 Y114.339 E11.73658
G1 X107.921 Y114.368 E11.79151
G1 X107.504 Y115.482 E11.87418
G1 X107.291 Y115.924 E11.90826
G1 X106.974 Y116.467 E11.95197
G1 X106.690 Y116.886 E11.98713
G1 X106.379 Y117.280 E12.02203
G1 X105.927 Y117.754 E12.06755
G1 X105.259 Y118.273 E12.12630
G1 X104.658 Y118.643 E12.17531
G1 X104.125 Y118.915 E12.21692
G1 X103.131 Y119.284 E12.29057
G1 X102.603 Y119.432 E12.32867
G1 X102.075 Y119.549 E12.36629
G1 X101.316 Y119.676 E12.41971
G1 X100.309 Y119.755 E12.48992
G1 X99.972 Y119.760 E12.51333
G1 X98.507 Y119.686 E12.61523
G1 X97.170 Y120.569 E12.72656
G1 X96.827 Y120.779 E12.75456
G1 X96.621 Y120.879 E12.77041
G1 X95.406 Y121.291 E12.85962
G1 X94.743 Y121.426 E12.90662
G1 X93.828 Y121.456 E12.97021
G1 X92.750 Y121.423 E13.04513
G1 X92.314 Y121.373 E13.07566
G1 X91.703 Y121.265 E13.11872
G1 X91.152 Y121.112 E13.15845
G1 X90.791 Y120.967 E13.18550
G1 X89.950 Y120.539 E13.25105
G1 X89.499 Y120.366 E13.28463
G1 X89.243 Y120.203 E13.30572
G1 X88.197 Y119.417 E13.39664
G1 X87.416 Y118.764 E13.46739
G1 X86.848 Y118.139 E13.52603
G1 X86.214 Y117.332 E13.59735
G1 X85.920 Y116.868 E13.63554
G1 X85.578 Y116.252 E13.68449
G1 X85.347 Y115.786 E13.72061
G1 X85.244 Y115.497 E13.74193
G1 X85.055 Y114.779 E13.79356
G1 X84.924 Y113.990 E13.84908
G1 X84.818 Y113.085 E13.91242
G1 X84.806 Y112.057 E13.98385
G1 X84.829 Y111.648 E14.01229
G1 X84.940 Y110.775 E14.07348
G1 X85.076 Y110.128 E14.11936
G1 X85.159 Y109.527 E14.16152
G1 X85.338 Y108.797 E14.21380
G1 X85.544 Y108.315 E14.25020
G1 X85.635 Y107.880 E14.28106
G1 X85.886 Y107.320 E14.32369
G1 X85.996 Y106.983 E14.34834
G1 X86.234 Y106.473 E14.38742
G1 X86.571 Y105.417 E14.46444
G1 X86.998 Y104.653 E14.52528
G1 X87.193 Y104.212 E14.55879
G1 X87.345 Y103.926 E14.58130
G1 X87.532 Y103.658 E14.60400
G1 X87.735 Y103.429 E14.62530
G1 X87.984 Y103.198 E14.64881
G1 X88.265 Y102.974 E14.67384
G1 X88.749 Y102.689 E14.71288
G1 X89.213 Y102.465 E14.74864
G1 X89.617 Y102.323 E14.77840
G1 X90.181 Y102.220 E14.81824
G1 X91.002 Y102.165 E14.87539
G1 X103.545 Y93.638 F7800.000
G1 X116.079 Y106.172 E16.10700 F1080.000
G1 X115.996 Y106.886 E16.15700
G1 X102.530 Y93.420 E17.48025
G1 X101.596 Y93.284 E17.54583
G1 X115.849 Y107.537 E18.94641
G1 X115.674 Y108.159 E18.99132
G1 X100.740 Y93.226 E20.45872
G1 X99.912 Y93.196 E20.51628
G1 X115.478 Y108.761 E22.04576
G1 X115.228 Y109.309 E22.08759
G1 X99.138 Y93.219 E23.66860
G1 X98.393 Y93.272 E23.72050
G1 X114.917 Y109.796 E25.34420
G1 X114.592 Y110.268 E25.38406
G1 X97.676 Y93.353 E27.04621
G1 X97.003 Y93.478 E27.09376
G1 X114.267 Y110.741 E28.79008
G1 X113.939 Y111.211 E28.82990
G1 X96.350 Y93.622 E30.55824
G1 X95.730 Y93.800 E30.60306
G1 X113.548 Y111.618 E32.35388
G1 X113.141 Y112.009 E32.39308
G1 X95.140 Y94.007 E34.16197
G1 X94.588 Y94.253 E34.20394
G1 X112.719 Y112.384 E35.98557
G1 X112.262 Y112.725 E36.02518
G1 X94.071 Y94.533 E37.81269
G1 X93.612 Y94.873 E37.85232
G1 X111.753 Y113.014 E39.63489
G1 X111.209 Y113.267 E39.67663
G1 X93.214 Y95.272 E41.44486
G1 X92.840 Y95.695 E41.48413
G1 X110.657 Y113.513 E43.23488
G1 X110.054 Y113.707 E43.27891
G1 X92.530 Y96.184 E45.00083
G1 X92.272 Y96.723 E45.04239
G1 X109.402 Y113.854 E46.72564
G1 X108.704 Y113.953 E46.77463
G1 X92.071 Y97.320 E48.40910
G1 X91.886 Y97.933 E48.45359
G1 X107.936 Y113.983 E50.03073
G1 X107.515 Y114.359 E50.06999
G1 X91.757 Y98.601 E51.61836
G1 X91.653 Y99.296 E51.66712
G1 X107.297 Y114.940 E53.20433
G1 X107.068 Y115.508 E53.24690
G1 X91.575 Y100.015 E54.76926
G1 X91.522 Y100.759 E54.82112
G1 X106.787 Y116.025 E56.32116
G1 X106.477 Y116.512 E56.36131
G1 X91.481 Y101.516 E57.83489
G1 X91.440 Y102.273 E57.88755
G1 X106.136 Y116.969 E59.33164
G1 X105.746 Y117.377 E59.37084
G1 X90.925 Y102.555 E60.82725
G1 X90.181 Y102.609 E60.87908
G1 X105.315 Y117.744 E62.36624
G1 X104.855 Y118.082 E62.40589
G1 X89.533 Y102.759 E63.91150
G1 X88.980 Y103.004 E63.95352
G1 X104.347 Y118.371 E65.46351
G1 X103.803 Y118.625 E65.50520
G1 X88.476 Y103.297 E67.01132
G1 X88.050 Y103.669 E67.05060
G1 X103.221 Y118.841 E68.54140
G1 X102.614 Y119.031 E68.58564
G1 X87.695 Y104.112 E70.05162
G1 X87.426 Y104.641 E70.09285
G1 X101.964 Y119.179 E71.52135
G1 X101.280 Y119.293 E71.56951
G1 X87.152 Y105.164 E72.95778
G1 X86.885 Y105.695 E72.99906
G1 X100.541 Y119.352 E74.34097
G1 X99.759 Y119.367 E74.39536
G1 X86.692 Y106.300 E75.67933
G1 X86.470 Y106.876 E75.72219
G1 X98.920 Y119.325 E76.94553
G1 X98.216 Y119.419 E76.99487
G1 X86.247 Y107.451 E78.17090
G1 X86.001 Y108.002 E78.21287
G1 X97.737 Y119.738 E79.36605
G1 X97.257 Y120.055 E79.40606
G1 X85.828 Y108.627 E80.52904
G1 X85.628 Y109.225 E80.57286
G1 X96.767 Y120.363 E81.66734
G1 X96.220 Y120.615 E81.70913
G1 X85.496 Y109.891 E82.76289
G1 X85.376 Y110.568 E82.81070
G1 X95.625 Y120.817 E83.81782
G1 X95.004 Y120.994 E83.86271
G1 X85.263 Y111.252 E84.81991
G1 X85.197 Y111.985 E84.87100
G1 X94.270 Y121.058 E85.76255
G1 X93.476 Y121.061 E85.81772
G1 X85.201 Y112.786 E86.63086
G1 X85.269 Y113.652 E86.69116
G1 X92.641 Y121.024 E87.41562
G1 X91.675 Y120.856 E87.48378
G1 X85.414 Y114.594 E88.09903
G1 X85.741 Y115.719 E88.18042
G1 X90.322 Y120.301 E88.63063
G1 X87.854 Y118.630 F7800.000
G1 X87.399 Y118.175 E88.67529 F1080.000
G1 X104.762 Y94.057 F7800.000
G1 X116.107 Y105.401 E89.79005 F1080.000
G1 X116.045 Y104.542 E89.84995
