;Generated with Cura_SteamEngine 14.12
; Default start code
G28 ; Home extruder
G1 Y50. F1200
G1 Z1.5 F500
G1 X50. F1200
G1 Z1.0 F120
M107 ; Turn off fan
G90 ; Absolute positioning
M82 ; Extruder in absolute mode
;   Bed temp
;   M190 Sxx --> set & wait
;   M140 Sxx --> set & continue
M190 S99
M140 S100
;    Extruder
;    M109 Sxx --> set & wait
;    M104 Sxx --> set & continue
M104 T0 S215
G92 E0 ; Reset extruder position
; Wait for all used extruders to reach temperature
M109 T0 S215
;Layer count: 113
;LAYER:0
M107
G0 F5160 X61.254 Y69.687 Z0.200
G0 X61.511 Y69.765
;TYPE:SKIRT
G1 F2100 X62.458 Y69.149 E0.05167
G1 X63.385 Y68.151 E0.11396
G1 X63.367 Y67.967 E0.12241
G1 X63.707 Y67.805 E0.13964
G1 X64.077 Y67.407 E0.16449
G1 X64.316 Y67.516 E0.17650
G1 X65.341 Y67.028 E0.22842
G1 X66.278 Y66.253 E0.28403
G1 X66.279 Y66.131 E0.28961
G1 X66.529 Y66.045 E0.30170
G1 X67.197 Y65.492 E0.34136
G1 X67.527 Y65.702 E0.35925
G1 X68.248 Y65.453 E0.39413
G1 X69.248 Y64.829 E0.44804
G1 X69.283 Y64.476 E0.46426
G1 X70.032 Y64.339 E0.49908
G1 X70.338 Y64.147 E0.51560
G1 X70.479 Y64.256 E0.52375
G1 X71.807 Y64.012 E0.58550
G1 X72.424 Y63.731 E0.61651
G1 X72.508 Y63.310 E0.63614
G1 X73.452 Y63.261 E0.67937
G1 X73.926 Y63.045 E0.70319
G1 X74.098 Y63.228 E0.71468
G1 X75.261 Y63.168 E0.76794
G1 X76.396 Y62.821 E0.82222
G1 X76.445 Y62.705 E0.82797
G1 X76.718 Y62.722 E0.84048
G1 X77.477 Y62.489 E0.87679
G1 X77.687 Y62.780 E0.89320
G1 X78.500 Y62.830 E0.93046
G1 X79.793 Y62.611 E0.99043
G1 X79.938 Y62.350 E1.00408
G1 X80.559 Y62.482 E1.03312
G1 X81.113 Y62.388 E1.05882
G1 X81.240 Y62.626 E1.07115
G1 X82.366 Y62.865 E1.12380
G1 X83.541 Y62.825 E1.17756
G1 X83.621 Y62.723 E1.18349
G1 X83.893 Y62.813 E1.19659
G1 X84.706 Y62.786 E1.23380
G1 X84.834 Y63.126 E1.25041
G1 X85.564 Y63.370 E1.28561
G1 X87.059 Y63.512 E1.35429
G1 X87.157 Y63.416 E1.36056
G1 X87.424 Y63.547 E1.37416
G1 X88.196 Y63.620 E1.40963
G1 X88.277 Y63.964 E1.42579
G1 X89.026 Y64.331 E1.46393
G1 X90.466 Y64.660 E1.53149
G1 X90.563 Y64.587 E1.53704
G1 X90.781 Y64.731 E1.54899
G1 X91.555 Y64.908 E1.58530
G1 X91.592 Y65.268 E1.60185
G1 X92.314 Y65.746 E1.64145
G1 X93.699 Y66.266 E1.70910
G1 X93.909 Y66.149 E1.72010
G1 X94.279 Y66.483 E1.74289
G1 X94.762 Y66.664 E1.76648
G1 X94.753 Y66.911 E1.77779
G1 X95.606 Y67.681 E1.83034
G1 X96.650 Y68.235 E1.88439
G1 X96.781 Y68.182 E1.89085
G1 X96.984 Y68.412 E1.90488
G1 X97.683 Y68.783 E1.94107
G1 X97.623 Y69.138 E1.95754
G1 X98.159 Y69.745 E1.99457
G1 X99.654 Y70.807 E2.07844
G1 X99.739 Y70.790 E2.08240
G1 X99.832 Y70.933 E2.09020
G1 X100.543 Y71.438 E2.13009
G1 X100.406 Y71.816 E2.14847
G1 X100.835 Y72.476 E2.18447
G1 X101.811 Y73.386 E2.24550
G1 X102.005 Y73.367 E2.25441
G1 X102.176 Y73.726 E2.27260
G1 X102.714 Y74.228 E2.30625
G1 X102.561 Y74.535 E2.32194
G1 X102.944 Y75.341 E2.36275
G1 X103.719 Y76.278 E2.41836
G1 X103.841 Y76.279 E2.42394
G1 X103.927 Y76.529 E2.43603
G1 X104.480 Y77.197 E2.47569
G1 X104.270 Y77.527 E2.49358
G1 X104.519 Y78.248 E2.52846
G1 X105.144 Y79.248 E2.58239
G1 X105.484 Y79.282 E2.59802
G1 X105.619 Y80.008 E2.63179
G1 X105.825 Y80.338 E2.64958
G1 X105.708 Y80.488 E2.65828
G1 X105.798 Y80.972 E2.68079
G1 X106.530 Y80.166 E2.73059
G1 X108.335 Y78.505 E2.84277
G1 X110.280 Y77.012 E2.95490
G1 X112.352 Y75.698 E3.06711
G1 X113.579 Y75.066 E3.13023
G1 X113.579 Y74.117 E3.17363
G1 X113.618 Y72.065 E3.26749
G1 X114.173 Y69.793 E3.37445
G1 X115.171 Y67.726 E3.47942
G1 X116.577 Y65.910 E3.58445
G1 X118.336 Y64.423 E3.68979
G1 X120.367 Y63.337 E3.79512
G1 X122.576 Y62.701 E3.90024
G1 X124.864 Y62.538 E4.00514
G1 X127.142 Y62.855 E4.11033
G1 X129.304 Y63.643 E4.21556
G1 X130.921 Y64.654 E4.30278
G1 X131.993 Y65.494 E4.36506
G1 X142.943 Y74.063 E5.00094
G1 X143.947 Y74.976 E5.06301
G1 X144.979 Y76.246 E5.13784
G1 X145.665 Y77.408 E5.19955
G1 X150.651 Y87.489 E5.71389
G1 X151.572 Y89.583 E5.81851
G1 X152.355 Y91.906 E5.93062
G1 X152.928 Y94.292 E6.04284
G1 X153.285 Y96.718 E6.15498
G1 X153.425 Y99.166 E6.26712
G1 X153.344 Y101.618 E6.37932
G1 X153.046 Y104.053 E6.49151
G1 X152.530 Y106.452 E6.60373
G1 X151.804 Y108.794 E6.71586
G1 X150.870 Y111.062 E6.82804
G1 X149.738 Y113.237 E6.94017
G1 X148.415 Y115.304 E7.05241
G1 X146.913 Y117.243 E7.16457
G1 X145.245 Y119.041 E7.27674
G1 X143.422 Y120.683 E7.38894
G1 X141.460 Y122.155 E7.50111
G1 X139.375 Y123.445 E7.61324
G1 X137.182 Y124.545 E7.72544
G1 X134.900 Y125.444 E7.83761
G1 X132.547 Y126.136 E7.94978
G1 X130.140 Y126.615 E8.06201
G1 X127.701 Y126.877 E8.17420
G1 X125.249 Y126.920 E8.28635
G1 X122.802 Y126.744 E8.39855
G1 X120.381 Y126.349 E8.51073
G1 X118.007 Y125.742 E8.62279
G1 X115.693 Y124.922 E8.73507
G1 X113.464 Y123.901 E8.84719
G1 X111.332 Y122.684 E8.95946
G1 X109.320 Y121.280 E9.07166
G1 X107.442 Y119.705 E9.18375
G1 X105.710 Y117.966 E9.29600
G1 X104.143 Y116.081 E9.40810
G1 X102.748 Y114.065 E9.52022
G1 X101.539 Y111.927 E9.63254
G1 X100.527 Y109.693 E9.74471
G1 X100.069 Y108.381 E9.80826
G1 X99.165 Y109.654 E9.87966
G1 X99.183 Y109.745 E9.88390
G1 X99.030 Y109.844 E9.89224
G1 X98.707 Y110.299 E9.91776
G1 X98.450 Y110.220 E9.93005
G1 X97.486 Y110.846 E9.98262
G1 X96.586 Y111.812 E10.04300
G1 X96.605 Y112.005 E10.05187
G1 X96.246 Y112.176 E10.07005
G1 X95.887 Y112.561 E10.09413
G1 X95.657 Y112.456 E10.10569
G1 X94.630 Y112.945 E10.15771
G1 X93.707 Y113.708 E10.21248
G1 X93.706 Y113.841 E10.21856
G1 X93.434 Y113.934 E10.23171
G1 X92.888 Y114.386 E10.26412
G1 X92.608 Y114.218 E10.27905
G1 X91.728 Y114.520 E10.32160
G1 X90.723 Y115.149 E10.37582
G1 X90.690 Y115.484 E10.39122
G1 X89.979 Y115.616 E10.42429
G1 X89.639 Y115.829 E10.44264
G1 X89.484 Y115.708 E10.45163
G1 X88.189 Y115.948 E10.51186
G1 X87.547 Y116.242 E10.54416
G1 X87.465 Y116.650 E10.56319
G1 X86.546 Y116.699 E10.60528
G1 X86.055 Y116.923 E10.62996
G1 X85.878 Y116.735 E10.64177
G1 X84.745 Y116.795 E10.69365
G1 X83.574 Y117.155 E10.74968
G1 X83.526 Y117.267 E10.75525
G1 X83.261 Y117.251 E10.76739
G1 X82.489 Y117.488 E10.80433
G1 X82.276 Y117.191 E10.82104
G1 X81.444 Y117.141 E10.85916
G1 X80.185 Y117.350 E10.91752
G1 X80.029 Y117.631 E10.93222
G1 X79.360 Y117.488 E10.96351
G1 X78.712 Y117.596 E10.99355
G1 X78.574 Y117.320 E11.00767
G1 X77.553 Y117.101 E11.05542
G1 X76.439 Y117.136 E11.10639
G1 X76.372 Y117.222 E11.11138
G1 X76.138 Y117.146 E11.12263
G1 X75.279 Y117.173 E11.16193
G1 X75.146 Y116.823 E11.17906
G1 X74.464 Y116.600 E11.21187
G1 X72.910 Y116.449 E11.28327
G1 X72.813 Y116.544 E11.28948
G1 X72.544 Y116.413 E11.30317
G1 X71.969 Y116.357 E11.32959
G1 X71.898 Y116.098 E11.34187
G1 X70.938 Y115.630 E11.39071
G1 X69.521 Y115.302 E11.45723
G1 X69.402 Y115.391 E11.46402
G1 X69.133 Y115.212 E11.47880
G1 X68.415 Y115.046 E11.51250
G1 X68.381 Y114.713 E11.52781
G1 X67.695 Y114.257 E11.56548
G1 X66.244 Y113.722 E11.63621
G1 X66.063 Y113.823 E11.64569
G1 X65.750 Y113.540 E11.66498
G1 X65.222 Y113.346 E11.69071
G1 X65.231 Y113.072 E11.70325
G1 X64.365 Y112.291 E11.75658
G1 X63.309 Y111.730 E11.81126
G1 X63.190 Y111.778 E11.81713
G1 X63.005 Y111.569 E11.82990
G1 X62.291 Y111.190 E11.86687
G1 X62.351 Y110.829 E11.88360
G1 X61.827 Y110.236 E11.91979
G1 X60.319 Y109.165 E12.00438
G1 X60.227 Y109.183 E12.00867
G1 X60.127 Y109.029 E12.01706
G1 X59.429 Y108.533 E12.05622
G1 X59.564 Y108.161 E12.07432
G1 X59.138 Y107.504 E12.11013
G1 X58.151 Y106.587 E12.17175
G1 X57.967 Y106.605 E12.18020
G1 X57.805 Y106.265 E12.19742
G1 X57.407 Y105.895 E12.22228
G1 X57.516 Y105.656 E12.23429
G1 X57.028 Y104.631 E12.28621
G1 X56.264 Y103.708 E12.34100
G1 X56.021 Y103.706 E12.35212
G1 X55.866 Y103.227 E12.37514
G1 X55.492 Y102.775 E12.40197
G1 X55.643 Y102.537 E12.41486
G1 X55.307 Y101.496 E12.46489
G1 X54.823 Y100.724 E12.50656
G1 X54.476 Y100.689 E12.52251
G1 X54.341 Y99.956 E12.55659
G1 X54.069 Y99.521 E12.58006
G1 X54.226 Y99.329 E12.59140
G1 X54.012 Y98.164 E12.64557
G1 X53.731 Y97.547 E12.67657
G1 X53.310 Y97.463 E12.69621
G1 X53.261 Y96.519 E12.73944
G1 X53.122 Y96.214 E12.75477
G1 X53.240 Y96.096 E12.76240
G1 X53.169 Y94.718 E12.82550
G1 X52.817 Y93.574 E12.88024
G1 X52.705 Y93.526 E12.88581
G1 X52.721 Y93.262 E12.89791
G1 X52.486 Y92.497 E12.93451
G1 X52.780 Y92.285 E12.95108
G1 X52.829 Y91.471 E12.98838
G1 X52.611 Y90.179 E13.04830
G1 X52.341 Y90.029 E13.06242
G1 X52.478 Y89.390 E13.09231
G1 X52.390 Y88.870 E13.11643
G1 X52.615 Y88.750 E13.12809
G1 X52.864 Y87.585 E13.18257
G1 X52.825 Y86.431 E13.23538
G1 X52.723 Y86.351 E13.24131
G1 X52.813 Y86.080 E13.25437
G1 X52.786 Y85.279 E13.29102
G1 X53.122 Y85.152 E13.30745
G1 X53.370 Y84.406 E13.34340
G1 X53.512 Y82.913 E13.41199
G1 X53.416 Y82.815 E13.41826
G1 X53.547 Y82.546 E13.43194
G1 X53.621 Y81.775 E13.46737
G1 X53.964 Y81.694 E13.48348
G1 X54.347 Y80.913 E13.52326
G1 X54.670 Y79.519 E13.58870
G1 X54.587 Y79.409 E13.59501
G1 X54.753 Y79.158 E13.60877
G1 X54.829 Y78.830 E13.62417
G1 X54.990 Y78.801 E13.63165
G1 X55.745 Y77.659 E13.69426
G1 X56.265 Y76.272 E13.76200
G1 X56.149 Y76.063 E13.77293
G1 X56.482 Y75.694 E13.79566
G1 X56.659 Y75.222 E13.81872
G1 X56.901 Y75.230 E13.82979
G1 X57.681 Y74.365 E13.88306
G1 X58.235 Y73.322 E13.93707
G1 X58.182 Y73.191 E13.94353
G1 X58.412 Y72.988 E13.95756
G1 X58.783 Y72.289 E13.99375
G1 X59.138 Y72.349 E14.01021
G1 X59.744 Y71.814 E14.04718
G1 X60.807 Y70.317 E14.13115
G1 X60.790 Y70.233 E14.13507
G1 X60.932 Y70.141 E14.14281
G1 X61.254 Y69.687 E14.16826
G1 X61.511 Y69.765 E14.18054
G0 F5160 X61.596 Y70.365
G1 F2100 X62.815 Y69.573 E14.24703
G1 X63.958 Y68.343 E14.32381
G1 X63.953 Y68.297 E14.32593
G1 X64.037 Y68.257 E14.33019
G1 X64.210 Y68.071 E14.34180
G1 X64.321 Y68.122 E14.34739
G1 X65.639 Y67.495 E14.41414
G1 X67.239 Y66.171 E14.50911
G1 X67.455 Y66.308 E14.52081
G1 X68.484 Y65.954 E14.57058
G1 X69.768 Y65.151 E14.63984
G1 X69.789 Y64.942 E14.64944
G1 X70.234 Y64.860 E14.67014
G1 X70.303 Y64.817 E14.67385
G1 X70.335 Y64.842 E14.67571
G1 X71.977 Y64.540 E14.75206
G1 X72.907 Y64.115 E14.79883
G1 X72.963 Y63.837 E14.81180
G1 X73.587 Y63.805 E14.84037
G1 X73.795 Y63.710 E14.85083
G1 X73.870 Y63.790 E14.85584
G1 X75.357 Y63.714 E14.92394
G1 X77.262 Y63.130 E15.01506
G1 X77.395 Y63.314 E15.02544
G1 X78.525 Y63.383 E15.07722
G1 X80.145 Y63.109 E15.15235
G1 X80.221 Y62.973 E15.15948
G1 X80.544 Y63.042 E15.17458
G1 X80.814 Y62.996 E15.18711
G1 X80.876 Y63.112 E15.19313
G1 X82.315 Y63.417 E15.26040
G1 X84.329 Y63.349 E15.35255
G1 X84.410 Y63.565 E15.36310
G1 X85.452 Y63.912 E15.41333
G1 X87.261 Y64.083 E15.49643
G1 X87.264 Y64.081 E15.49660
G1 X87.271 Y64.084 E15.49694
G1 X87.751 Y64.130 E15.51900
G1 X87.801 Y64.344 E15.52905
G1 X88.841 Y64.853 E15.58200
G1 X91.048 Y65.356 E15.68552
G1 X91.071 Y65.583 E15.69595
G1 X92.062 Y66.239 E15.75030
G1 X93.745 Y66.870 E15.83250
G1 X93.833 Y66.821 E15.83711
G1 X93.989 Y66.961 E15.84670
G1 X94.198 Y67.040 E15.85692
G1 X94.194 Y67.147 E15.86181
G1 X95.289 Y68.135 E15.92926
G1 X96.617 Y68.840 E15.99802
G1 X96.625 Y68.837 E15.99841
G1 X96.637 Y68.851 E15.99926
G1 X97.075 Y69.083 E16.02192
G1 X97.038 Y69.305 E16.03222
G1 X97.788 Y70.156 E16.08409
G1 X99.883 Y71.644 E16.20161
G1 X99.795 Y71.885 E16.21334
G1 X100.412 Y72.834 E16.26511
G1 X101.618 Y73.959 E16.34053
G1 X101.675 Y73.953 E16.34316
G1 X101.725 Y74.058 E16.34847
G1 X102.038 Y74.350 E16.36805
G1 X101.949 Y74.528 E16.37715
G1 X102.477 Y75.639 E16.43341
G1 X103.801 Y77.239 E16.52838
G1 X103.664 Y77.455 E16.54008
G1 X104.018 Y78.484 E16.58985
G1 X104.821 Y79.768 E16.65910
G1 X105.019 Y79.788 E16.66821
G1 X105.098 Y80.211 E16.68788
G1 X105.155 Y80.303 E16.69283
G1 X105.122 Y80.345 E16.69528
G1 X105.421 Y81.952 E16.77003
G1 X105.498 Y82.120 E16.77848
G1 X106.920 Y80.554 E16.87522
G1 X108.690 Y78.926 E16.98520
G1 X110.596 Y77.463 E17.09508
G1 X112.626 Y76.175 E17.20503
G1 X114.129 Y75.401 E17.28235
G1 X114.129 Y74.122 E17.34084
G1 X114.167 Y72.136 E17.43168
G1 X114.693 Y69.980 E17.53317
G1 X115.641 Y68.017 E17.63287
G1 X116.976 Y66.292 E17.73262
G1 X118.647 Y64.881 E17.83264
G1 X120.575 Y63.850 E17.93263
G1 X122.673 Y63.245 E18.03248
G1 X124.845 Y63.091 E18.13207
G1 X127.008 Y63.392 E18.23194
G1 X129.062 Y64.140 E18.33191
G1 X130.604 Y65.105 E18.41510
G1 X131.654 Y65.927 E18.47608
G1 X142.588 Y74.483 E19.11102
G1 X143.546 Y75.355 E19.17027
G1 X144.526 Y76.561 E19.24133
G1 X145.181 Y77.670 E19.30024
G1 X150.153 Y87.722 E19.81310
G1 X151.059 Y89.782 E19.91602
G1 X151.826 Y92.058 E20.02586
G1 X152.388 Y94.396 E20.13583
G1 X152.737 Y96.774 E20.24575
G1 X152.874 Y99.173 E20.35564
G1 X152.795 Y101.576 E20.46559
G1 X152.504 Y103.961 E20.57547
G1 X151.998 Y106.312 E20.68545
G1 X151.286 Y108.607 E20.79534
G1 X150.371 Y110.830 E20.90528
G1 X149.262 Y112.961 E21.01515
G1 X147.965 Y114.987 E21.12516
G1 X146.494 Y116.887 E21.23505
G1 X144.858 Y118.649 E21.34501
G1 X143.072 Y120.257 E21.45492
G1 X141.149 Y121.700 E21.56487
G1 X139.106 Y122.964 E21.67474
G1 X136.958 Y124.043 E21.78467
G1 X134.721 Y124.923 E21.89460
G1 X132.416 Y125.602 E22.00449
G1 X130.057 Y126.071 E22.11449
G1 X127.667 Y126.328 E22.22442
G1 X125.264 Y126.369 E22.33433
G1 X122.866 Y126.197 E22.44428
G1 X120.494 Y125.810 E22.55419
G1 X118.167 Y125.215 E22.66404
G1 X115.900 Y124.412 E22.77403
G1 X113.715 Y123.411 E22.88394
G1 X111.626 Y122.218 E22.99395
G1 X109.655 Y120.843 E23.10386
G1 X107.814 Y119.300 E23.21372
G1 X106.117 Y117.596 E23.32370
G1 X104.581 Y115.748 E23.43359
G1 X103.215 Y113.772 E23.54345
G1 X102.030 Y111.678 E23.65349
G1 X101.038 Y109.489 E23.76340
G1 X100.294 Y107.360 E23.86653
G1 X99.824 Y107.775 E23.89521
G1 X98.488 Y109.657 E24.00076
G1 X98.366 Y109.620 E24.00659
G1 X97.128 Y110.423 E24.07407
G1 X96.013 Y111.618 E24.14882
G1 X96.019 Y111.675 E24.15144
G1 X95.913 Y111.725 E24.15680
G1 X95.754 Y111.896 E24.16748
G1 X95.652 Y111.850 E24.17260
G1 X94.332 Y112.477 E24.23943
G1 X92.838 Y113.714 E24.32813
G1 X92.672 Y113.614 E24.33699
G1 X91.488 Y114.021 E24.39425
G1 X90.203 Y114.826 E24.46360
G1 X90.184 Y115.019 E24.47247
G1 X89.773 Y115.095 E24.49158
G1 X89.673 Y115.158 E24.49699
G1 X89.627 Y115.122 E24.49966
G1 X88.020 Y115.421 E24.57441
G1 X87.063 Y115.857 E24.62251
G1 X87.010 Y116.124 E24.63495
G1 X86.410 Y116.156 E24.66243
G1 X86.186 Y116.258 E24.67369
G1 X86.105 Y116.172 E24.67909
G1 X84.650 Y116.249 E24.74573
G1 X82.705 Y116.847 E24.83879
G1 X82.569 Y116.658 E24.84943
G1 X81.414 Y116.588 E24.90235
G1 X79.833 Y116.851 E24.97565
G1 X79.746 Y117.008 E24.98386
G1 X79.372 Y116.928 E25.00135
G1 X79.023 Y116.986 E25.01753
G1 X78.949 Y116.837 E25.02514
G1 X77.602 Y116.549 E25.08813
G1 X75.654 Y116.611 E25.17726
G1 X75.567 Y116.382 E25.18847
G1 X74.576 Y116.058 E25.23615
G1 X72.710 Y115.876 E25.32189
G1 X72.706 Y115.880 E25.32215
G1 X72.695 Y115.875 E25.32270
G1 X72.400 Y115.846 E25.33626
G1 X72.364 Y115.713 E25.34256
G1 X71.124 Y115.109 E25.40564
G1 X69.395 Y114.709 E25.48680
G1 X69.383 Y114.718 E25.48748
G1 X69.355 Y114.699 E25.48903
G1 X68.922 Y114.599 E25.50935
G1 X68.901 Y114.398 E25.51860
G1 X67.946 Y113.763 E25.57105
G1 X66.197 Y113.119 E25.65628
G1 X66.139 Y113.151 E25.65931
G1 X66.039 Y113.061 E25.66546
G1 X65.784 Y112.967 E25.67789
G1 X65.788 Y112.834 E25.68398
G1 X64.682 Y111.836 E25.75211
G1 X62.899 Y110.890 E25.84441
G1 X62.937 Y110.662 E25.85499
G1 X62.196 Y109.823 E25.90618
G1 X60.089 Y108.327 E26.02435
G1 X60.174 Y108.092 E26.03578
G1 X59.562 Y107.148 E26.08723
G1 X58.343 Y106.014 E26.16337
G1 X58.297 Y106.019 E26.16549
G1 X58.257 Y105.935 E26.16974
G1 X58.071 Y105.762 E26.18136
G1 X58.122 Y105.651 E26.18695
G1 X57.495 Y104.333 E26.25370
G1 X56.525 Y103.161 E26.32327
G1 X56.423 Y103.160 E26.32794
G1 X56.358 Y102.959 E26.33760
G1 X56.171 Y102.733 E26.35101
G1 X56.246 Y102.614 E26.35745
G1 X55.809 Y101.262 E26.42243
G1 X55.146 Y100.203 E26.47957
G1 X54.942 Y100.183 E26.48894
G1 X54.863 Y99.752 E26.50898
G1 X54.745 Y99.564 E26.51913
G1 X54.813 Y99.481 E26.52404
G1 X54.540 Y97.996 E26.59309
G1 X54.115 Y97.063 E26.63997
G1 X53.837 Y97.008 E26.65293
G1 X53.805 Y96.386 E26.68142
G1 X53.781 Y96.333 E26.68408
G1 X53.801 Y96.313 E26.68537
G1 X53.715 Y94.622 E26.76281
G1 X53.128 Y92.712 E26.85419
G1 X53.314 Y92.578 E26.86467
G1 X53.383 Y91.446 E26.91654
