;Generated with Cura_SteamEngine 14.09
; Default start code
G28 ; Home extruder
G1 Z5 F400
G1 F3000 Y50.
G1 X50.
M107 ; Turn off fan
G90 ; Absolute positioning
M82 ; Extruder in absolute mode
M190 S95
; Activate all used extruder
M104 T0 S210
G92 E0 ; Reset extruder position
; Wait for all used extruders to reach temperature
M109 T0 S210
;Layer count: 45
;LAYER:0
M107
G0 F9000 X79.943 Y20.954 Z0.200
G0 X79.943 Y22.274
;TYPE:SKIRT
G1 F1800 X79.960 Y22.446 E0.00479
G1 X79.968 Y22.472 E0.00554
G1 X79.983 Y22.500 E0.00642
G1 X80.003 Y22.525 E0.00730
G1 X80.194 Y22.682 E0.01415
G1 X81.084 Y23.382 E0.04550
G1 X82.005 Y24.365 E0.08280
G1 X82.767 Y25.479 E0.12017
G1 X83.350 Y26.694 E0.15749
G1 X83.742 Y27.985 E0.19485
G1 X83.895 Y29.061 E0.22494
G1 X83.942 Y29.347 E0.23296
G1 X83.954 Y29.379 E0.23391
G1 X83.970 Y29.405 E0.23476
G1 X83.992 Y29.428 E0.23564
G1 X84.131 Y29.528 E0.24038
G1 X85.274 Y30.187 E0.27691
G1 X85.275 Y30.178 E0.27716
G1 X85.245 Y29.080 E0.30758
G1 X85.089 Y27.942 E0.33938
G1 X84.815 Y26.862 E0.37023
G1 X84.424 Y25.818 E0.40110
G1 X83.913 Y24.808 E0.43244
G1 X83.305 Y23.878 E0.46321
G1 X82.596 Y23.017 E0.49409
G1 X81.790 Y22.233 E0.52522
G1 X80.901 Y21.540 E0.55643
G1 X79.954 Y20.959 E0.58720
G1 X79.943 Y20.954 E0.58753
G1 X79.943 Y22.274 E0.62408
G0 F9000 X79.610 Y22.285
G1 F1800 X79.632 Y22.514 E0.63045
G1 X79.659 Y22.601 E0.63297
G1 X79.704 Y22.686 E0.63564
G1 X79.768 Y22.764 E0.63843
G1 X79.976 Y22.935 E0.64589
G1 X79.991 Y22.946 E0.64640
G1 X80.858 Y23.628 E0.67695
G1 X81.745 Y24.574 E0.71285
G1 X82.478 Y25.646 E0.74881
G1 X83.039 Y26.815 E0.78471
G1 X83.416 Y28.057 E0.82065
G1 X83.570 Y29.142 E0.85100
G1 X83.618 Y29.433 E0.85916
G1 X83.654 Y29.528 E0.86198
G1 X83.705 Y29.609 E0.86463
G1 X83.768 Y29.677 E0.86719
G1 X83.950 Y29.808 E0.87340
G1 X85.562 Y30.737 E0.92492
G1 X85.608 Y30.181 E0.94037
G1 X85.578 Y29.053 E0.97161
G1 X85.416 Y27.876 E1.00451
G1 X85.136 Y26.771 E1.03607
G1 X84.727 Y25.681 E1.06831
G1 X84.204 Y24.647 E1.10039
G1 X83.572 Y23.679 E1.13240
G1 X82.837 Y22.787 E1.16440
G1 X82.007 Y21.979 E1.19648
G1 X81.100 Y21.273 E1.22830
G1 X80.107 Y20.663 E1.26057
G1 X79.610 Y20.429 E1.27578
G1 X79.610 Y22.285 E1.32717
G0 F9000 X79.277 Y22.312
G1 F1800 X79.303 Y22.572 E1.33441
G1 X79.351 Y22.732 E1.33903
G1 X79.425 Y22.870 E1.34337
G1 X79.532 Y23.000 E1.34803
G1 X79.780 Y23.205 E1.35694
G1 X79.788 Y23.210 E1.35720
G1 X80.633 Y23.874 E1.38696
G1 X81.485 Y24.783 E1.42146
G1 X82.188 Y25.813 E1.45599
G1 X82.728 Y26.936 E1.49049
G1 X83.090 Y28.130 E1.52503
G1 X83.235 Y29.153 E1.55364
G1 X83.297 Y29.525 E1.56409
G1 X83.351 Y29.671 E1.56840
G1 X83.440 Y29.813 E1.57304
G1 X83.550 Y29.931 E1.57750
G1 X83.765 Y30.085 E1.58483
G1 X85.851 Y31.288 E1.65150
G1 X85.942 Y30.191 E1.68198
G1 X85.910 Y29.025 E1.71428
G1 X85.745 Y27.822 E1.74790
G1 X85.451 Y26.665 E1.78096
G1 X85.032 Y25.544 E1.81409
G1 X84.494 Y24.481 E1.84708
G1 X83.841 Y23.481 E1.88015
G1 X83.082 Y22.560 E1.91320
G1 X82.228 Y21.729 E1.94619
G1 X81.288 Y20.998 E1.97916
G1 X80.268 Y20.371 E2.01231
G1 X79.378 Y19.951 E2.03956
G1 X79.277 Y19.904 E2.04265
G1 X79.277 Y22.312 E2.10932
G0 F9000 X78.944 Y22.325
G1 F1800 X78.975 Y22.641 E2.11811
G1 X79.041 Y22.860 E2.12445
G1 X79.147 Y23.057 E2.13064
G1 X79.294 Y23.236 E2.13706
G1 X79.579 Y23.470 E2.14727
G1 X79.585 Y23.475 E2.14748
G1 X80.407 Y24.120 E2.17641
G1 X81.224 Y24.992 E2.20950
G1 X81.899 Y25.980 E2.24263
G1 X82.416 Y27.057 E2.27571
G1 X82.764 Y28.202 E2.30885
G1 X82.913 Y29.248 E2.33810
G1 X82.972 Y29.606 E2.34815
G1 X83.054 Y29.823 E2.35457
G1 X83.174 Y30.016 E2.36086
G1 X83.329 Y30.182 E2.36715
G1 X83.588 Y30.367 E2.37597
G1 X86.098 Y31.816 E2.45622
G1 X86.173 Y31.433 E2.46702
G1 X86.275 Y30.200 E2.50128
G1 X86.243 Y28.998 E2.53457
G1 X86.072 Y27.757 E2.56926
G1 X85.770 Y26.565 E2.60331
G1 X85.339 Y25.414 E2.63734
G1 X84.781 Y24.311 E2.67157
G1 X84.110 Y23.284 E2.70553
G1 X83.329 Y22.336 E2.73954
G1 X82.449 Y21.480 E2.77354
G1 X81.471 Y20.719 E2.80785
G1 X80.430 Y20.079 E2.84168
G1 X79.535 Y19.657 E2.86908
G1 X79.292 Y19.545 E2.87649
G1 X78.944 Y19.425 E2.88668
G1 X78.944 Y22.325 E2.96698
G0 F9000 X78.611 Y22.338
G1 F1800 X78.648 Y22.709 E2.97731
G1 X78.732 Y22.987 E2.98535
G1 X78.870 Y23.244 E2.99342
G1 X79.057 Y23.473 E3.00161
G1 X79.372 Y23.731 E3.01288
G1 X79.382 Y23.739 E3.01324
G1 X80.181 Y24.367 E3.04138
G1 X80.964 Y25.202 E3.07307
G1 X81.610 Y26.147 E3.10477
G1 X82.105 Y27.178 E3.13644
G1 X82.438 Y28.274 E3.16815
G1 X82.578 Y29.261 E3.19576
G1 X82.650 Y29.696 E3.20797
G1 X82.754 Y29.971 E3.21611
G1 X82.908 Y30.220 E3.22421
G1 X83.108 Y30.434 E3.23232
G1 X83.404 Y30.646 E3.24240
G1 X85.980 Y32.132 E3.32475
G1 X86.336 Y32.338 E3.33614
G1 X86.504 Y31.479 E3.36037
G1 X86.609 Y30.210 E3.39563
G1 X86.575 Y28.970 E3.42998
G1 X86.399 Y27.693 E3.46567
G1 X86.088 Y26.466 E3.50072
G1 X85.645 Y25.280 E3.53577
G1 X85.070 Y24.145 E3.57100
G1 X84.377 Y23.084 E3.60609
G1 X83.575 Y22.111 E3.64101
G1 X82.666 Y21.226 E3.67614
G1 X81.665 Y20.447 E3.71126
G1 X80.590 Y19.787 E3.74619
G1 X79.663 Y19.349 E3.77457
G1 X79.421 Y19.237 E3.78196
G1 X78.611 Y18.958 E3.80568
G1 X78.611 Y22.338 E3.89927
G0 F9000 X78.278 Y22.361
G1 F1800 X78.319 Y22.771 E3.91068
G1 X78.421 Y23.112 E3.92053
G1 X78.593 Y23.431 E3.93057
G1 X78.821 Y23.709 E3.94052
G1 X79.166 Y23.993 E3.95290
G1 X79.180 Y24.003 E3.95337
G1 X79.956 Y24.613 E3.98070
G1 X80.703 Y25.411 E4.01097
G1 X81.321 Y26.314 E4.04127
G1 X81.794 Y27.299 E4.07152
G1 X82.112 Y28.346 E4.10182
G1 X82.249 Y29.316 E4.12895
G1 X82.326 Y29.783 E4.14205
G1 X82.452 Y30.118 E4.15196
G1 X82.641 Y30.421 E4.16185
G1 X82.888 Y30.685 E4.17186
G1 X83.230 Y30.930 E4.18351
G1 X85.814 Y32.420 E4.26610
G1 X86.565 Y32.855 E4.29013
G1 X86.590 Y32.775 E4.29245
G1 X86.834 Y31.526 E4.32769
G1 X86.941 Y30.228 E4.36375
G1 X86.907 Y28.935 E4.39957
G1 X86.727 Y27.627 E4.43612
G1 X86.407 Y26.366 E4.47215
G1 X85.949 Y25.143 E4.50831
G1 X85.361 Y23.982 E4.54434
G1 X84.650 Y22.893 E4.58035
G1 X83.817 Y21.881 E4.61665
G1 X82.887 Y20.976 E4.65258
G1 X81.859 Y20.176 E4.68864
G1 X80.744 Y19.491 E4.72488
G1 X79.805 Y19.048 E4.75363
G1 X79.549 Y18.930 E4.76143
G1 X78.331 Y18.511 E4.79710
G1 X78.278 Y18.499 E4.79860
G1 X78.278 Y22.361 E4.90554
G0 F9000 X77.945 Y22.373
G1 F1800 X77.991 Y22.839 E4.91850
G1 X78.113 Y23.243 E4.93019
G1 X78.314 Y23.618 E4.94197
G1 X78.581 Y23.943 E4.95362
G1 X78.957 Y24.252 E4.96709
G1 X78.977 Y24.267 E4.96778
G1 X79.730 Y24.859 E4.99431
G1 X80.443 Y25.620 E5.02318
G1 X81.032 Y26.481 E5.05207
G1 X81.483 Y27.420 E5.08091
G1 X81.786 Y28.418 E5.10979
G1 X81.921 Y29.370 E5.13641
G1 X82.003 Y29.868 E5.15039
G1 X82.155 Y30.270 E5.16229
G1 X82.375 Y30.625 E5.17385
G1 X82.667 Y30.937 E5.18568
G1 X83.042 Y31.206 E5.19846
G1 X85.647 Y32.709 E5.28174
G1 X86.760 Y33.352 E5.31733
G1 X86.792 Y33.251 E5.32026
G1 X86.911 Y32.864 E5.33147
G1 X87.165 Y31.564 E5.36815
G1 X87.275 Y30.233 E5.40513
G1 X87.239 Y28.907 E5.44186
G1 X87.055 Y27.571 E5.47920
G1 X86.723 Y26.262 E5.51659
G1 X86.255 Y25.010 E5.55360
G1 X85.652 Y23.819 E5.59056
G1 X84.914 Y22.689 E5.62794
G1 X84.063 Y21.656 E5.66499
G1 X83.103 Y20.722 E5.70208
G1 X82.048 Y19.901 E5.73910
G1 X80.902 Y19.197 E5.77634
G1 X79.954 Y18.749 E5.80537
G1 X79.954 Y18.750 E5.80540
G1 X79.672 Y18.620 E5.81399
G1 X78.421 Y18.190 E5.85062
G1 X77.945 Y18.083 E5.86413
G1 X77.945 Y22.373 E5.98292
G0 F9000 X77.612 Y22.386
G1 F1800 X77.663 Y22.903 E5.99730
G1 X77.804 Y23.371 E6.01084
G1 X78.037 Y23.804 E6.02445
G1 X78.345 Y24.179 E6.03789
G1 X78.763 Y24.523 E6.05288
G1 X78.774 Y24.531 E6.05325
G1 X79.504 Y25.105 E6.07897
G1 X80.182 Y25.829 E6.10643
G1 X80.742 Y26.648 E6.13390
G1 X81.171 Y27.541 E6.16134
G1 X81.460 Y28.491 E6.18883
G1 X81.592 Y29.425 E6.21495
G1 X81.680 Y29.954 E6.22980
G1 X81.852 Y30.412 E6.24334
G1 X82.114 Y30.833 E6.25707
G1 X82.446 Y31.188 E6.27053
G1 X82.865 Y31.489 E6.28482
G1 X86.732 Y33.721 E6.40845
G1 X86.960 Y33.831 E6.41546
G1 X87.110 Y33.351 E6.42938
G1 X87.235 Y32.944 E6.44117
G1 X87.496 Y31.610 E6.47881
G1 X87.608 Y30.247 E6.51667
G1 X87.572 Y28.880 E6.55454
G1 X87.383 Y27.508 E6.59289
G1 X87.041 Y26.160 E6.63139
G1 X86.560 Y24.876 E6.66936
G1 X85.941 Y23.653 E6.70731
G1 X85.182 Y22.491 E6.74574
G1 X84.313 Y21.435 E6.78361
G1 X83.324 Y20.473 E6.82181
G1 X82.231 Y19.622 E6.86017
G1 X81.063 Y18.904 E6.89813
G1 X80.089 Y18.445 E6.92795
G1 X79.796 Y18.310 E6.93688
G1 X78.514 Y17.869 E6.97442
G1 X77.630 Y17.671 E6.99950
G1 X77.612 Y17.920 E7.00641
G1 X77.612 Y22.386 E7.13007
G0 F9000 X77.279 Y22.409
G1 F1800 X77.334 Y22.966 E7.14557
G1 X77.496 Y23.502 E7.16108
G1 X77.757 Y23.988 E7.17635
G1 X78.110 Y24.418 E7.19175
G1 X78.546 Y24.777 E7.20739
G1 X78.546 Y24.776 E7.20742
G1 X78.571 Y24.795 E7.20829
G1 X79.278 Y25.351 E7.23319
G1 X79.922 Y26.038 E7.25927
G1 X80.453 Y26.815 E7.28533
G1 X80.860 Y27.663 E7.31137
G1 X81.134 Y28.563 E7.33742
G1 X81.263 Y29.479 E7.36303
G1 X81.264 Y29.479 E7.36306
G1 X81.358 Y30.046 E7.37898
G1 X81.551 Y30.559 E7.39415
G1 X81.846 Y31.034 E7.40963
G1 X82.226 Y31.439 E7.42501
G1 X82.684 Y31.768 E7.44063
G1 X86.579 Y34.017 E7.56516
G1 X86.957 Y34.198 E7.57677
G1 X87.171 Y34.269 E7.58301
G1 X87.559 Y33.024 E7.61912
G1 X87.826 Y31.656 E7.65771
G1 X87.942 Y30.260 E7.69650
G1 X87.904 Y28.854 E7.73544
G1 X87.710 Y27.442 E7.77491
G1 X87.359 Y26.058 E7.81444
G1 X86.868 Y24.746 E7.85323
G1 X86.228 Y23.483 E7.89244
G1 X85.454 Y22.298 E7.93163
G1 X84.555 Y21.206 E7.97079
G1 X83.541 Y20.220 E8.00995
G1 X82.424 Y19.350 E8.04916
G1 X81.223 Y18.612 E8.08819
G1 X80.232 Y18.145 E8.11852
G1 X79.915 Y17.999 E8.12819
G1 X78.604 Y17.548 E8.16657
G1 X77.357 Y17.268 E8.20196
G1 X77.308 Y17.497 E8.20845
G1 X77.308 Y17.500 E8.20853
G1 X77.279 Y17.910 E8.21991
G1 X77.279 Y22.409 E8.34448
G0 F9000 X74.340 Y11.373
G1 F1800 X74.318 Y10.684 E8.36357
G1 X74.456 Y10.261 E8.37589
G1 X74.493 Y10.137 E8.37947
G1 X75.143 Y10.132 E8.39747
G1 X75.703 Y10.136 E8.41298
G1 X75.747 Y10.258 E8.41657
G1 X75.888 Y10.687 E8.42907
G1 X75.866 Y11.372 E8.44805
G1 X75.889 Y11.470 E8.45084
G1 X75.939 Y11.525 E8.45290
G1 X76.033 Y11.555 E8.45563
G1 X76.578 Y11.590 E8.47075
G1 X76.671 Y11.573 E8.47337
G1 X76.730 Y11.524 E8.47549
G1 X76.765 Y11.430 E8.47827
G1 X76.833 Y10.745 E8.49733
G1 X77.076 Y10.238 E8.51290
G1 X77.721 Y10.305 E8.53085
G1 X78.283 Y10.383 E8.54656
G1 X78.388 Y10.954 E8.56264
G1 X78.277 Y11.632 E8.58166
G1 X78.286 Y11.728 E8.58433
G1 X78.330 Y11.791 E8.58646
G1 X78.418 Y11.832 E8.58915
G1 X78.547 Y11.856 E8.59278
G1 X78.697 Y11.885 E8.59701
G1 X78.951 Y11.938 E8.60419
G1 X79.053 Y11.932 E8.60702
G1 X79.114 Y11.892 E8.60904
G1 X79.161 Y11.805 E8.61178
G1 X79.318 Y11.134 E8.63086
G1 X79.625 Y10.662 E8.64645
G1 X80.256 Y10.813 E8.66442
G1 X80.797 Y10.963 E8.67996
G1 X80.809 Y11.091 E8.68352
G1 X80.833 Y11.542 E8.69603
G1 X80.634 Y12.199 E8.71504
G1 X80.631 Y12.297 E8.71775
G1 X80.667 Y12.365 E8.71988
G1 X80.753 Y12.421 E8.72272
G1 X81.264 Y12.593 E8.73765
G1 X81.361 Y12.601 E8.74035
G1 X81.433 Y12.568 E8.74254
G1 X81.490 Y12.487 E8.74528
G1 X81.731 Y11.843 E8.76432
G1 X82.096 Y11.416 E8.77988
G1 X82.559 Y11.590 E8.79357
G1 X83.226 Y11.869 E8.81359
G1 X83.214 Y11.999 E8.81721
G1 X83.215 Y11.999 E8.81723
G1 X83.180 Y12.446 E8.82965
G1 X82.898 Y13.070 E8.84861
G1 X82.881 Y13.169 E8.85139
G1 X82.907 Y13.239 E8.85346
G1 X82.988 Y13.306 E8.85637
G1 X83.470 Y13.544 E8.87125
G1 X83.566 Y13.565 E8.87397
G1 X83.639 Y13.542 E8.87609
G1 X83.706 Y13.470 E8.87882
G1 X84.031 Y12.861 E8.89793
G1 X84.450 Y12.485 E8.91352
G1 X85.021 Y12.795 E8.93151
G1 X85.516 Y13.085 E8.94739
G1 X85.479 Y13.219 E8.95124
G1 X85.389 Y13.649 E8.96341
G1 X85.028 Y14.231 E8.98237
G1 X84.998 Y14.327 E8.98515
G1 X85.014 Y14.399 E8.98720
G1 X85.084 Y14.474 E8.99004
G1 X85.532 Y14.773 E9.00495
G1 X85.626 Y14.808 E9.00773
G1 X85.701 Y14.795 E9.00984
G1 X85.776 Y14.732 E9.01255
G1 X86.179 Y14.171 E9.03167
G1 X86.643 Y13.853 E9.04725
G1 X87.169 Y14.234 E9.06523
G1 X87.619 Y14.586 E9.08105
G1 X87.572 Y14.705 E9.08460
G1 X87.423 Y15.129 E9.09704
G1 X86.988 Y15.658 E9.11600
G1 X86.946 Y15.749 E9.11878
G1 X86.953 Y15.824 E9.12086
G1 X87.013 Y15.910 E9.12377
G1 X87.417 Y16.263 E9.13862
G1 X87.505 Y16.309 E9.14137
G1 X87.581 Y16.304 E9.14348
G1 X87.678 Y16.239 E9.14671
G1 X88.137 Y15.750 E9.16528
G1 X88.638 Y15.495 E9.18085
G1 X89.109 Y15.942 E9.19883
G1 X89.507 Y16.344 E9.21449
G1 X89.245 Y16.862 E9.23057
G1 X88.744 Y17.332 E9.24959
G1 X88.692 Y17.415 E9.25230
G1 X88.689 Y17.491 E9.25441
G1 X88.735 Y17.579 E9.25716
G1 X89.090 Y17.985 E9.27209
G1 X89.174 Y18.043 E9.27491
G1 X89.249 Y18.050 E9.27700
G1 X89.340 Y18.008 E9.27978
G1 X89.872 Y17.571 E9.29884
G1 X90.296 Y17.421 E9.31129
G1 X90.419 Y17.384 E9.31485
G1 X90.813 Y17.890 E9.33261
G1 X91.151 Y18.339 E9.34817
G1 X91.080 Y18.447 E9.35175
G1 X90.825 Y18.818 E9.36421
G1 X90.268 Y19.218 E9.38320
G1 X90.205 Y19.293 E9.38591
G1 X90.192 Y19.369 E9.38805
G1 X90.228 Y19.467 E9.39094
G1 X90.525 Y19.911 E9.40573
G1 X90.601 Y19.980 E9.40857
G1 X90.674 Y19.996 E9.41064
G1 X90.769 Y19.967 E9.41339
G1 X91.355 Y19.603 E9.43249
G1 X91.792 Y19.510 E9.44486
G1 X91.918 Y19.485 E9.44842
G1 X92.246 Y20.042 E9.46632
G1 X92.529 Y20.539 E9.48215
G1 X92.437 Y20.630 E9.48574
G1 X92.137 Y20.964 E9.49817
G1 X91.532 Y21.287 E9.51716
G1 X91.460 Y21.354 E9.51988
G1 X91.438 Y21.426 E9.52196
G1 X91.461 Y21.528 E9.52486
G1 X91.697 Y22.008 E9.53967
G1 X91.762 Y22.086 E9.54248
G1 X91.831 Y22.111 E9.54451
G1 X91.949 Y22.088 E9.54784
G1 X92.560 Y21.811 E9.56642
G1 X93.121 Y21.767 E9.58200
G1 X93.385 Y22.361 E9.60000
G1 X93.601 Y22.891 E9.61584
G1 X93.493 Y22.975 E9.61963
G1 X93.158 Y23.262 E9.63185
G1 X92.518 Y23.502 E9.65077
G1 X92.434 Y23.563 E9.65365
G1 X92.403 Y23.629 E9.65567
G1 X92.412 Y23.733 E9.65856
G1 X92.584 Y24.239 E9.67336
G1 X92.641 Y24.327 E9.67626
G1 X92.704 Y24.360 E9.67823
G1 X92.825 Y24.352 E9.68159
G1 X93.466 Y24.157 E9.70014
G1 X94.028 Y24.188 E9.71572
G1 X94.212 Y24.811 E9.73371
G1 X94.354 Y25.357 E9.74933
G1 X94.246 Y25.429 E9.75292
G1 X93.869 Y25.674 E9.76537
G1 X93.199 Y25.832 E9.78443
G1 X93.114 Y25.876 E9.78708
G1 X93.074 Y25.940 E9.78917
G1 X93.069 Y26.038 E9.79189
G1 X93.126 Y26.314 E9.79969
G1 X93.178 Y26.577 E9.80712
G1 X93.217 Y26.661 E9.80968
G1 X93.280 Y26.705 E9.81181
G1 X93.376 Y26.715 E9.81448
G1 X94.059 Y26.601 E9.83366
G1 X94.490 Y26.683 E9.84580
G1 X94.622 Y26.696 E9.84948
G1 X94.714 Y27.347 E9.86768
G1 X94.783 Y27.906 E9.88328
G1 X94.667 Y27.964 E9.88687
G1 X94.260 Y28.158 E9.89935
G1 X93.579 Y28.226 E9.91830
G1 X93.485 Y28.261 E9.92108
G1 X93.436 Y28.320 E9.92320
G1 X93.419 Y28.413 E9.92582
G1 X93.449 Y28.838 E9.93762
G1 X93.456 Y28.963 E9.94108
G1 X93.485 Y29.052 E9.94368
G1 X93.540 Y29.102 E9.94573
G1 X93.638 Y29.125 E9.94852
G1 X94.327 Y29.103 E9.96761
G1 X94.747 Y29.240 E9.97984
G1 X94.874 Y29.278 E9.98351
G1 X94.879 Y29.928 E10.00151
G1 X94.875 Y30.491 E10.01710
G1 X94.324 Y30.673 E10.03317
G1 X93.639 Y30.651 E10.05214
G1 X93.541 Y30.674 E10.05493
G1 X93.486 Y30.724 E10.05699
G1 X93.456 Y30.818 E10.05972
G1 X93.420 Y31.363 E10.07484
G1 X93.437 Y31.456 E10.07746
G1 X93.486 Y31.515 E10.07959
G1 X93.581 Y31.550 E10.08239
G1 X94.266 Y31.618 E10.10145
G1 X94.773 Y31.861 E10.11702
G1 X94.706 Y32.506 E10.13497
G1 X94.628 Y33.067 E10.15066
G1 X94.058 Y33.174 E10.16671
G1 X93.378 Y33.062 E10.18580
G1 X93.282 Y33.071 E10.18847
G1 X93.220 Y33.115 E10.19057
G1 X93.180 Y33.203 E10.19325
G1 X93.155 Y33.333 E10.19691
G1 X93.098 Y33.619 E10.20499
G1 X93.073 Y33.734 E10.20825
G1 X93.079 Y33.838 E10.21113
G1 X93.119 Y33.899 E10.21315
G1 X93.206 Y33.946 E10.21589
G1 X93.877 Y34.103 E10.23497
G1 X94.348 Y34.409 E10.25052
G1 X94.237 Y34.891 E10.26422
G1 X94.048 Y35.586 E10.28416
G1 X93.469 Y35.618 E10.30022
G1 X92.812 Y35.419 E10.31923
G1 X92.713 Y35.416 E10.32197
G1 X92.647 Y35.450 E10.32402
G1 X92.591 Y35.538 E10.32691
G1 X92.418 Y36.049 E10.34185
G1 X92.410 Y36.146 E10.34454
G1 X92.443 Y36.218 E10.34674
G1 X92.522 Y36.274 E10.34942
G1 X93.168 Y36.516 E10.36852
G1 X93.595 Y36.882 E10.38409
G1 X93.363 Y37.488 E10.40206
G1 X93.142 Y38.010 E10.41775
G1 X92.565 Y37.965 E10.43378
G1 X91.941 Y37.683 E10.45274
G1 X91.842 Y37.666 E10.45552
